X:145
T:Waltzes simple chords 31
M:3/4
L:1/8
K:A
ed2< [c2A,2C2E2]B | A2 [A2A,2C2E2] c2 | e2 [a2D,2F,2A,2] g2 | f2 [e4A,4C4E4] | ed2< [c2A,2C2E2]B |
c2 [A2F,2A,2C2] B2 | c2 [d2B2D2F2]>c2 | d2 [B2E,2G,2B,2D2] e2 | d2 [c2A,2C2E2]>B2 |
A2 [A2A,2C2E2] c2 | e2 [a2D,2F,2A,2] g2 | f2 [e4A,4C4E4] | d2 [c2A,2C2E2]>A2 |
c2 [B2=G,2B,2D2]>G2 | B2 [A2A,2C2E2]>B2 | A2 [A4A,4C4E4] | E2 [A2A,2C2E2]>B2 |
c2 [c2A,2C2E2] B2 | c2 [e2A,2C2E2]>d2 | c2 [c4F,4A,4C4] | e2 [d2B,2D2F2]>c2 |
d2 [B2E,2G,2B,2D2] c2 | d2 [e2A,2C2E2]>c2 | A2 [A2A,2C2E2=G2] ce | ce2< [f2D,2F,2A,2]d |
f2 [a2D,2F,2A,2] g2 | f2 [e2A,2C2E2]>d2 | c2 [a4A,4C4E4] | d2 [c2A,2C2E2]>A2 |
c2 [B2=G,2B,2D2]>G2 | B2 [A2A,2C2E2]>B2 | A2 [A4A,4C4E4] |


